X: 3571
T: Big Ships
R: polka
M: 2/4
K: Gmajor
|:GG/A/ BB/c/|d/e/d/c/ Bd|cc AF|d/e/d/c/ BA|
GG/A/ BB/c/|d/e/d/c/ Bd|cc AF|1 GB GD:|2 GB Gd||
|:gg/f/ ee|d/e/d/c/ Bd|cc AF|d/e/d/c/ Bd|
gg/f/ ee|d/e/d/c/ Bd|cc AF|1 GB Gd:|2 GB GD||

